img/Item-1.svg

<svg width="190" height="32" viewBox="0 0 190 32" fill="none" xmlns="http://www.w3.org/2000/svg">
<path fill-rule="evenodd" clip-rule="evenodd" d="M57.7599 27.3497H57.7599L57.7597 27.3497L57.7596 27.3497C57.2071 27.4064 56.6463 27.4638 56.072 27.5345L51.464 14.2036V28.1018C50.024 28.2436 48.728 28.4327 47.336 28.6691V3.18909H51.176L56.408 17.6545V3.18909H60.488V27.0145C59.5865 27.1625 58.685 27.2549 57.7599 27.3497ZM71.2917 12.5001L71.2919 12.5001L71.292 12.5001C72.2457 12.4771 73.1772 12.4545 73.88 12.4545V16.4255C72.104 16.4255 69.992 16.4255 68.456 16.52V22.4291C69.2039 22.384 69.9567 22.3341 70.7128 22.284L70.7128 22.284L70.7129 22.284L70.713 22.284H70.7131H70.7131H70.7131H70.7131H70.7131H70.7132H70.7132C72.3346 22.1766 73.9713 22.0681 75.608 22.0036V25.8327L64.424 26.6836V3.18909H75.608V7.16H68.456V12.5491C69.2668 12.5491 70.2914 12.5243 71.2915 12.5001L71.2916 12.5001H71.2917H71.2917ZM86.408 7.20727H90.584C90.584 7.20727 90.584 3.18909 90.632 3.18909H78.2V7.20727H82.376V25.5491C83.672 25.5018 85.064 25.5018 86.408 25.5018V7.20727ZM97.16 12.2655H102.68V16.2364H97.16V25.2655H93.176V3.18909H104.456V7.16H97.16V12.2655ZM115.218 21.9573C113.83 21.8769 112.431 21.796 111.032 21.7673V3.18909H107V25.5018C110.696 25.5964 114.296 25.7854 117.896 26.0218V22.0982C117.01 22.061 116.116 22.0093 115.218 21.9573ZM122.666 26.3926L122.667 26.3926C123.531 26.4441 124.41 26.4964 125.288 26.5891V3.18909H121.304V26.3055C121.753 26.3382 122.208 26.3653 122.666 26.3926ZM137.816 15.2909L142.952 3.18909H138.488L135.656 9.85454L133.016 3.18909H128.696L133.4 15.1491L128.216 26.7782C128.792 26.8538 129.368 26.9143 129.944 26.9748C130.808 27.0656 131.672 27.1564 132.536 27.2982L135.512 20.5382L138.392 27.9127C138.93 27.9955 139.462 28.0841 139.992 28.1724C140.976 28.3362 141.954 28.4989 142.952 28.6218L137.816 15.2909Z" fill="white"/>
</svg>

<svg width="190" height="32" fill="none" xmlns="http://www.w3.org/2000/svg"><path fill-rule="evenodd" clip-rule="evenodd" d="M57.76 27.35c-.553.056-1.114.114-1.688.184l-4.608-13.33v13.898c-1.44.142-2.736.33-4.128.567V3.19h3.84l5.232 14.465V3.19h4.08v23.826c-.901.148-1.803.24-2.728.335zM71.292 12.5c.954-.023 1.885-.046 2.588-.046v3.971c-1.776 0-3.888 0-5.424.095v5.91c.748-.046 1.5-.096 2.257-.146 1.622-.107 3.258-.216 4.895-.28v3.829l-11.184.85V3.19h11.184V7.16h-7.152v5.39c.81 0 1.835-.026 2.835-.05zm15.116-5.293h4.176s0-4.018.048-4.018H78.2v4.018h4.176V25.55c1.296-.047 2.688-.047 4.032-.047V7.207zm10.752 5.058h5.52v3.971h-5.52v9.03h-3.984V3.188h11.28V7.16H97.16v5.105zm18.058 9.692c-1.388-.08-2.787-.161-4.186-.19V3.19H107v22.313c3.696.094 7.296.283 10.896.52v-3.924c-.886-.037-1.78-.089-2.678-.14zm7.448 4.436h.001c.864.051 1.743.103 2.621.196V3.19h-3.984v23.116c.449.033.904.06 1.362.088zm15.15-11.102 5.136-12.102h-4.464l-2.832 6.666-2.64-6.666h-4.32l4.704 11.96-5.184 11.63c.576.075 1.152.135 1.728.196.864.09 1.728.181 2.592.323l2.976-6.76 2.88 7.375c.538.082 1.07.171 1.6.26.984.163 1.962.326 2.96.449l-5.136-13.331z" fill="#fff"/></svg>
